X: 14578
T: Gan Ainm
R: reel
M: 4/4
K: Gmajor
|:Ge e/e/e edBA|G2 BG AGed|
g2 bg agea|1 gedB edBA:|2 geaf gedB||
|:dG G/G/G BG B/c/d|gfga ba a/a/a|
bage dGBf|1 geaf gedB:|2 gedB G4||

